X:3562
T:Crosses of Annagh, The
R:reel
H:See also "The Cottage in the Grove", #227,
H:"The Humours of Allegheny", #415
D:Molloy, Peoples, Brady
Z:id:hn-reel-477
M:C|
K:Ador
EAAG A2Bd|eggd edBA|~G3B AEGE|DGBG AGED|
EAAG A2Bd|~g3d edBA|GABd gedB|1 GAAG ~A3G:|2 GAAG A2Bd||
|:eg~g2 a2ga|b2af gedB|d^cde ~g3a|bgaf gefd|
eg~g2 a2ga|b2af gedB|GABd gedB|1 GAAG A2Bd:|2 GAAG ~A3G||
"variations"
|:~A3G A2Bd|eg~g2 edBA|~G3B AE~E2|DGBG AGED|
A2GB A2Bd|g2dg edBA|GABd gedB|1 GAAG ~A3G:|2 GAAG A2Bd||
|:eg~g2 a2ga|bgaf gedB|d^cde ~g3a|aggf gedg|
eage a2ga|b2af gedB|GABd gedB|1 GAAG A2Bd:|2 GAAG ~A3G||


